X:75
T: A temető kapu
O: Körösfő, Ambrus Sándorné Márton Kata
L: 1/4
M: 4/4
K: F
Bc d<c | G2 F z | 
dBdf/g/ | d2 d z | 
fgag | fdBG | 
d f/_e/ d/c/d/c/ | G2 G z | 